web/public/favicon.svg

<svg viewBox="0 0 441.67 217.296" xml:space="preserve" xmlns="http://www.w3.org/2000/svg" enable-background="new 0 0 441.67 217.296"><path d="M105.164 10.736S89.178 164.884 281.293 174.218c0 0-30.349 21.594-102.297 25.257S32.949 167.558 14.206 16.233l90.958-5.497z" fill="#a27b5c" class="fill-fdbb03 fill-a27b5c"></path><path d="M338.26 138.039c64.85-8.031 95.234-43.198 101.93-74.003 5.172-23.794-3.463-46.194-22.002-57.063-19.09-11.187-37.137-7.443-51.256.927-2.303-4.667-7.099-7.852-12.605-7.852H14.239C6.847.048.717 5.776.213 13.151c-.089 1.345-6.586 114.482 74.96 176.031H14.057C6.294 189.182 0 195.476 0 203.239s6.294 14.057 14.057 14.057h404c7.763 0 14.057-6.294 14.057-14.057s-6.294-14.057-14.057-14.057H293.394c19.633-14.819 34.126-32.624 44.866-51.143zm65.706-106.812c7.979 4.678 11.332 14.96 8.751 26.838-3.854 17.729-21.913 39.33-59.748 48.761 8.547-22.939 12.46-45.006 14.201-61.967 4.213-5.443 19.969-23.502 36.796-13.632zM135.321 189.182C40.778 157.522 29.13 63.192 28.142 28.162H340.42c-.985 35.047-12.64 129.363-107.172 161.019h-97.927z" fill="#222831" class="fill-352517 fill-3f4e4f"></path></svg>

<?xml version="1.0" ?><svg style="enable-background:new 0 0 441.67 217.296;" version="1.1" viewBox="0 0 441.67 217.296" xml:space="preserve" xmlns="http://www.w3.org/2000/svg" xmlns:xlink="http://www.w3.org/1999/xlink"><g id="tea"><path d="M105.164,10.736c0,0-15.986,154.148,176.129,163.482c0,0-30.349,21.594-102.297,25.257   S32.949,167.558,14.206,16.233L105.164,10.736z" style="fill:#FDBB03;"/><path d="M338.26,138.039c64.85-8.031,95.234-43.198,101.93-74.003c5.172-23.794-3.463-46.194-22.002-57.063   C399.098-4.214,381.051-0.47,366.932,7.9c-2.303-4.667-7.099-7.852-12.605-7.852H14.239c-7.392,0-13.522,5.728-14.026,13.103   c-0.089,1.345-6.586,114.482,74.96,176.031H14.057C6.294,189.182,0,195.476,0,203.239s6.294,14.057,14.057,14.057h404   c7.763,0,14.057-6.294,14.057-14.057s-6.294-14.057-14.057-14.057H293.394C313.027,174.363,327.52,156.558,338.26,138.039z    M403.966,31.227c7.979,4.678,11.332,14.96,8.751,26.838c-3.854,17.729-21.913,39.33-59.748,48.761   c8.547-22.939,12.46-45.006,14.201-61.967C371.383,39.416,387.139,21.357,403.966,31.227z M135.321,189.182   C40.778,157.522,29.13,63.192,28.142,28.162H340.42c-0.985,35.047-12.64,129.363-107.172,161.019H135.321z" style="fill:#352517;"/></g><g id="Layer_1"/></svg>
